web/ui/src/assets/svgs/task-log/required.svg

<svg height="16" viewBox="0 0 16 16" width="16" xmlns="http://www.w3.org/2000/svg"><g fill="none"><path d="m0 0h16v16h-16z" fill="#000" opacity="0"/><path d="m15.4282386 1h-14.86295352c-.20195691 0-.38857279.10774272-.48955124.28264253s-.10097845.39038527 0 .56528508.28759433.28264253.48955124.28264253h.57160345v12.85412756c-.00072654.0891153.03450343.1747606.09772439.2375713.06311214.0634891.14889301.0992563.23841382.0994093.02943471 0 .05874507-.0038183.08719375-.0113731l5.89084329-1.6874307c.27265251-.0699654.55830403-.0719903.831921-.0058971l6.15537312 1.6920642c.1803985.0416924.3610796-.0682875.4069041-.2476808.0065585-.0258822.0098138-.0524906.0096882-.0791905v-12.85160016h.5716035c.2019569 0 .3885728-.10774272.4895512-.28264253.1009785-.17489981.1009785-.39038527 0-.56528508-.1009784-.17489981-.2875943-.28264253-.4895512-.28264253zm-2.044209 12.916469c-.0309358 0-.0617629-.003661-.0918272-.0109519l-5.0269091-1.4123702c-.26526509-.0643346-.54228026-.062454-.80664747.0054759l-4.74890004 1.3925726c-.10847133.0292476-.22430499.0097113-.31718305-.0534957l-.01727026-.0134792c-.09454879-.0719447-.14990137-.1840532-.14953697-.3028614v-11.39078896h11.54158959v11.40342576c-.0025099.2105132-.1727973.3804262-.3833155.3824731zm-8.82299627-6.07576148 2.02651748 2.100232c.16878652.17344308.40035485.27153688.6423694.27211188h.00210613c.02348498.0003377.04697036-.0006467.07034471-.0029486.23278434-.0175852.4490277-.1269949.60108926-.30412501l3.54630029-4.07030523c.099793-.11621686.1488041-.26760329.1360567-.42025487-.0127474-.15265157-.0861879-.29381253-.2038741-.39186853-.2398508-.20240857-.5967659-.1791598-.8083323.05265323l-3.35337888 3.85126779-1.81421967-1.88203702c-.10650465-.11158371-.25271508-.17666703-.40690415-.18112712-.23509913-.00891372-.45207148.12578448-.54837839.34043776-.09630691.21465329-.05266402.4662798.11030352.63596372z" fill="#e02020"/></g></svg>

<?xml version="1.0" encoding="UTF-8"?>
<svg width="16px" height="16px" viewBox="0 0 16 16" version="1.1" xmlns="http://www.w3.org/2000/svg" xmlns:xlink="http://www.w3.org/1999/xlink">
    <title>手术是接收确认备份 3</title>
    <g id="页面-1" stroke="none" stroke-width="1" fill="none" fill-rule="evenodd">
        <g id="建木节点库-详情（DSL示例）" transform="translate(-472.000000, -1527.000000)" fill-rule="nonzero">
            <g id="手术是接收确认备份-3" transform="translate(472.000000, 1527.000000)">
                <rect id="矩形" fill="#000000" opacity="0" x="0" y="0" width="16" height="16"></rect>
                <path d="M15.4282386,1 L0.565285078,1 C0.363328172,1 0.176712294,1.10774272 0.0757338404,1.28264253 C-0.0252446135,1.45754234 -0.0252446135,1.6730278 0.0757338404,1.84792761 C0.176712294,2.02282742 0.363328172,2.13057014 0.565285078,2.13057014 L1.13688853,2.13057014 L1.13688853,14.9846977 C1.13616199,15.073813 1.17139196,15.1594583 1.23461292,15.222269 C1.29772506,15.2857581 1.38350593,15.3215253 1.47302674,15.3216783 C1.50246145,15.3216783 1.53177181,15.31786 1.56022049,15.3103052 L7.45106378,13.6228745 C7.72371629,13.5529091 8.00936781,13.5508842 8.28298478,13.6169774 L14.4383579,15.3090416 C14.6187564,15.350734 14.7994375,15.2407541 14.845262,15.0613608 C14.8518205,15.0354786 14.8550758,15.0088702 14.8549502,14.9821703 L14.8549502,2.13057014 L15.4265537,2.13057014 C15.6285106,2.13057014 15.8151265,2.02282742 15.9161049,1.84792761 C16.0170834,1.6730278 16.0170834,1.45754234 15.9161049,1.28264253 C15.8151265,1.10774272 15.6285106,1 15.4265537,1 L15.4282386,1 Z M13.3840296,13.916469 C13.3530938,13.916469 13.3222667,13.912808 13.2922024,13.9055171 L8.2652933,12.4931469 C8.00002821,12.4288123 7.72301304,12.4306929 7.45864583,12.4986228 L2.70974579,13.8911954 C2.60127446,13.920443 2.4854408,13.9009067 2.39256274,13.8376997 L2.37529248,13.8242205 C2.28074369,13.7522758 2.22539111,13.6401673 2.22575551,13.5213591 L2.22575551,2.13057014 L13.7673451,2.13057014 L13.7673451,13.5339959 C13.7648352,13.7445091 13.5945478,13.9144221 13.3840296,13.916469 Z M4.56103333,7.84070752 L6.58755081,9.94093952 C6.75633733,10.1143826 6.98790566,10.2124764 7.22992021,10.2130514 L7.23202634,10.2130514 C7.25551132,10.2133891 7.2789967,10.2124047 7.30237105,10.2101028 C7.53515539,10.1925176 7.75139875,10.0831079 7.90346031,9.90597779 L11.4497606,5.83567256 C11.5495536,5.7194557 11.5985647,5.56806927 11.5858173,5.41541769 C11.5730699,5.26276612 11.4996294,5.12160516 11.3819432,5.02354916 C11.1420924,4.82114059 10.7851773,4.84438936 10.5736109,5.07620239 L7.22023202,8.92747018 L5.40601235,7.04543316 C5.2995077,6.93384945 5.15329727,6.86876613 4.9991082,6.86430604 C4.76400907,6.85539232 4.54703672,6.99009052 4.45072981,7.2047438 C4.3544229,7.41939709 4.39806579,7.6710236 4.56103333,7.84070752 L4.56103333,7.84070752 Z" id="形状" fill="#E02020"></path>
            </g>
        </g>
    </g>
</svg>
